docs/assets/img/details/overview/menu copy.svg

<?xml version="1.0" encoding="UTF-8"?>
<svg width="40px" height="40px" viewBox="0 0 40 40" version="1.1" xmlns="http://www.w3.org/2000/svg" xmlns:xlink="http://www.w3.org/1999/xlink">
    <title>menu copy</title>
    <g id="Welcome" stroke="none" stroke-width="1" fill="none" fill-rule="evenodd">
        <g id="lpw-featured-development-detailed-page-1.0" transform="translate(-1055.000000, -1115.000000)" fill="#000000" fill-rule="nonzero">
            <g id="menu-copy" transform="translate(1055.000000, 1115.000000)">
                <path d="M12.8,0 L4.26666667,0 C1.97006769,0.00235137592 0.108826912,1.86340128 0.10624,4.16 L0.10624,12.6933333 C0.108826912,14.9899321 1.97006769,16.850982 4.26666667,16.8533333 L12.8,16.8533333 C15.0962657,16.8505118 16.9569873,14.9895993 16.9595733,12.6933333 L16.9595733,4.16 C16.9569873,1.86373399 15.0962657,0.00282153427 12.8,0 Z M15.46624,12.6933333 C15.4645945,14.165244 14.2719104,15.358119 12.8,15.36 L4.26666667,15.36 C2.79442303,15.3585891 1.60121973,14.1655767 1.59957333,12.6933333 L1.59957333,4.16 C1.60121973,2.68775661 2.79442303,1.49474419 4.26666667,1.49333333 L12.8,1.49333333 C14.2719104,1.49521435 15.4645945,2.68808933 15.46624,4.16 L15.46624,12.6933333 Z" id="Shape"></path>
                <path d="M35.84,0 L27.3066667,0 C25.0100677,0.00235137592 23.1488269,1.86340128 23.14624,4.16 L23.14624,12.6933333 C23.1488269,14.9899321 25.0100677,16.850982 27.3066667,16.8533333 L35.84,16.8533333 C38.1364324,16.8507469 39.9974135,14.9897657 40,12.6933333 L40,4.16 C39.9974135,1.86356765 38.1364324,0.00258647212 35.84,0 Z M38.50624,12.6933333 C38.5045945,14.165244 37.3119104,15.358119 35.84,15.36 L27.3066667,15.36 C25.834423,15.3585891 24.6412197,14.1655767 24.6395733,12.6933333 L24.6395733,4.16 C24.6412197,2.68775661 25.834423,1.49474419 27.3066667,1.49333333 L35.84,1.49333333 C37.312077,1.4949793 38.5050207,2.68792299 38.5066667,4.16 L38.50624,12.6933333 Z" id="Shape"></path>
                <path d="M12.8,23.04 L4.26666667,23.04 C1.97006769,23.0423514 0.108826912,24.9034013 0.10624,27.2 L0.10624,35.7333333 C0.108826912,38.0299321 1.97006769,39.890982 4.26666667,39.8933333 L12.8,39.8933333 C15.0964324,39.8907469 16.9574135,38.0297657 16.96,35.7333333 L16.96,27.2 C16.9574135,24.9035676 15.0964324,23.0425865 12.8,23.04 L12.8,23.04 Z M15.46624,35.7333333 C15.4645945,37.205244 14.2719104,38.398119 12.8,38.4 L4.26666667,38.4 C2.79458965,38.398354 1.60164596,37.2054103 1.6,35.7333333 L1.6,27.2 C1.60164596,25.727923 2.79458965,24.5349793 4.26666667,24.5333333 L12.8,24.5333333 C14.2719104,24.5352144 15.4645945,25.7280893 15.46624,27.2 L15.46624,35.7333333 Z" id="Shape"></path>
                <path d="M31.5733333,23.04 C28.165026,23.0398274 25.0922266,25.0928094 23.7878043,28.2416253 C22.4833819,31.3904412 23.2042265,35.0149707 25.6142027,37.4250689 C28.0241789,39.8351672 31.6486719,40.5561952 34.7975538,39.2519323 C37.9464357,37.9476694 39.9995733,34.874974 39.9995733,31.4666667 C39.9941661,26.8151553 36.2248444,23.0456428 31.5733333,23.04 Z M31.5733333,38.4 C28.7690229,38.4001726 26.2407471,36.7110296 25.1674644,34.1202341 C24.0941817,31.5294387 24.6872629,28.5472184 26.6701488,26.5642105 C28.6530347,24.5812026 31.6352184,23.9879378 34.2260799,25.0610611 C36.8169414,26.1341844 38.50624,28.6623563 38.50624,31.4666667 C38.5017733,35.2938227 35.4004891,38.3952978 31.5733333,38.4 Z" id="Shape"></path>
            </g>
        </g>
    </g>
</svg>

<svg width="40" height="40" xmlns="http://www.w3.org/2000/svg"><path d="M12.8 0H4.267a4.165 4.165 0 00-4.16 4.16v8.533a4.165 4.165 0 004.16 4.16H12.8a4.165 4.165 0 004.16-4.16V4.16A4.165 4.165 0 0012.8 0zm2.666 12.693A2.67 2.67 0 0112.8 15.36H4.267A2.67 2.67 0 011.6 12.693V4.16a2.67 2.67 0 012.667-2.667H12.8a2.67 2.67 0 012.666 2.667v8.533zM35.84 0h-8.533a4.165 4.165 0 00-4.16 4.16v8.533a4.165 4.165 0 004.16 4.16h8.533a4.165 4.165 0 004.16-4.16V4.16A4.165 4.165 0 0035.84 0zm2.666 12.693a2.67 2.67 0 01-2.666 2.667h-8.533a2.67 2.67 0 01-2.667-2.667V4.16a2.67 2.67 0 012.667-2.667h8.533a2.67 2.67 0 012.667 2.667v8.533zM12.8 23.04H4.267a4.165 4.165 0 00-4.16 4.16v8.533a4.165 4.165 0 004.16 4.16H12.8a4.165 4.165 0 004.16-4.16V27.2a4.165 4.165 0 00-4.16-4.16zm2.666 12.693A2.67 2.67 0 0112.8 38.4H4.267A2.67 2.67 0 011.6 35.733V27.2a2.67 2.67 0 012.667-2.667H12.8a2.67 2.67 0 012.666 2.667v8.533zM31.573 23.04A8.427 8.427 0 1040 31.467a8.436 8.436 0 00-8.427-8.427zm0 15.36a6.933 6.933 0 116.933-6.933 6.941 6.941 0 01-6.933 6.933z"/></svg>
